!!!COM: Paul Hindemith
!!!OTL: [T642_Hin-w35p13hDm1-7]
**kern	**dynam	**kern	**dynam	**kern	**dynam	**kern	**dynam
*grp:A	*grp:A	*grp:A	*grp:A	*grp:B	*grp:B	*grp:A	*grp:A
*part3	*	*part3	*part3	*part2	*part2	*part1	*part1
*staff4	*	*staff3	*	*staff2	*	*staff1	*
*I"Piano	*	*	*	*I"Heckelphone	*	*I"Viola	*
*I'Pno.	*	*	*	*I'Heckl.	*	*I'Vla.	*
*clefF4	*	*clefG2	*	*clefG2	*	*clefG2	*
*	*	*	*	*ITrd7c12	*	*	*
*k[]	*	*k[]	*	*k[]	*	*k[]	*
*	*	*	*	*	*	*	*
*M4/4	*	*M4/4	*	*M4/4	*	*M4/4	*
!!LO:REH:t=D
=65	=65	=65	=65	=65	=65	=65	=65
*^	*	*	*	*	*	*	*
!	!	!	!	!	!	!	!LO:TX:t=[[half]=126]	!
!	!	!	!	!	!	!LO:DY:t=%s cresc.	!	!LO:DY:t=%s cresc.
!	!LO:T:b	!	!	!LO:DY:ed=brack	!	!LO:DY:ed=brack	!	!LO:DY:ed=brack
4G)	4GG]	.	4b-X)	mp	8f]	p	4dd-X	p
.	.	.	.	.	8r	.	.	.
*v	*v	*	*	*	*	*	*	*
*	*	*	*	*	*	*clefC3	*
4r	.	4r	.	(4f#X	.	(8E-XL	.
.	.	.	.	.	mp	8DnJ)	mp
2r	.	2r	.	4e	.	(8DL	.
.	.	.	.	.	.	8CJ)	.
.	.	.	.	4d	.	(8CL	.
.	.	.	.	.	.	8EnJ)	.
=66	=66	=66	=66	=66	=66	=66	=66
[1FFF#X [1FF#X	.	1r	mf	8c#XL	.	(8EL	<
.	.	.	.	8B#XJ	.	8GJ)	.
.	.	.	.	2c#)	.	(8GL	.
.	.	.	.	.	.	8B-XJ)	.
.	.	.	.	.	.	(8B-L	.
.	.	.	.	.	.	8G-XJ)	.
.	.	.	.	(4f#X	<	[4G-	.
=67	=67	=67	=67	=67	=67	=67	=67
1FFF#_ 1FF#_	.	1r	.	4e	.	8G-L]	.
.	.	.	.	.	.	8FJ	.
.	.	.	.	4d	.	[4G-X	.
.	.	.	.	8c#XL	.	8G-L]	.
.	.	.	.	8B#XJ	.	8E-X	.
.	.	.	.	[4c#	.	8G-	.
.	.	.	.	.	.	8FJ	.
!!linebreak:original
=68	=68	=68	=68	=68	=68	=68	=68
1FFF#_ 1FF#_	.	1r	.	4c#])	.	8G-XL	.
.	.	.	.	.	.	8D-XJ	.
.	.	.	.	(4f#X	.	2E-X	.
.	.	.	.	4e	.	.	.
.	.	.	.	4d	.	(8c-XL	.
.	.	.	.	.	.	8B--J)	.
=69	=69	=69	=69	=69	=69	=69	=69
1FFF#_ 1FF#_	.	1r	.	8c#XL	.	(8B--L	.
.	.	.	.	8B#XJ	.	8A-XJ)	.
.	.	.	.	4c#)	.	(8A-L	.
.	.	.	.	.	.	8cnJ)	.
.	.	.	.	(4f#X	.	(8cnL	.
.	.	.	.	.	.	8e-XJ)	.
.	.	.	.	4e	.	(8e-L	.
.	.	.	.	.	.	8c-XJ)	.
=70	=70	=70	=70	=70	=70	=70	=70
!	!	!	!	!	!	!LO:TX:a:B:t=poco riten.	!
1FFF#_ 1FF#_	.	1r	.	4d	.	8c-XL	.
.	.	.	.	.	.	8B-XJ	.
.	.	.	.	8c#XL	.	/[4c-	.
.	.	.	.	8B#XJ	.	.	.
.	.	.	.	4c#)	.	8c-L]	.
.	.	.	.	.	.	8A-XJ	.
.	.	.	.	(4f#X	.	/[4c-	.
=71	=71	=71	=71	=71	=71	=71	=71
1FFF#] 1FF#]	.	1r	.	4e	.	8c-L]	.
.	.	.	.	.	.	8G-XJ	.
.	.	.	.	4d	.	8c-XL	.
.	.	.	.	.	.	8B-XJ	.
.	.	.	.	8c#XL	.	8c-L	.
.	.	.	.	8B#XJ	.	8A-XJ	.
.	.	.	.	4c#)	f	4B-	f
=	=	=	=	=	=	=	=
*-	*-	*-	*-	*-	*-	*-	*-
!!!system-decoration: s1,s2[({(s3,s4)})]
!!!RDF**kern: > = above
!!!RDF**kern: < = below
!!!EED: Daniel Wright
!!!EEV: 2021/09/07
